X:121 
T:Margot Jackson (reel)
S:J.Wade < O.McCague
F:file ID: cre.4/121marg_j
B:CRE4.098 (MairÃÂÃÂÃÂÃÂ©ad Nic Shiacais)
L:1/8
Q:180
M:4/4
R:reel
K:G
DF|G2GF GBdB|cBcd cAFD|EDCE DCB,D|BGAF GFED|
G2 GF GBdB|cBcd cAFD|E2CE D2B,D|BGAF G2:|
Bd|g2 fg bgfd|f2 ef gecA|ce~e2 Bd~d2|BGAF GABd|
g2fg bgfd|f2ef gecA|EGEC B,Ddc|BGAF G2:|

%%%

